svgs/sharp-light/xmark-to-slot.svg

<svg xmlns="http://www.w3.org/2000/svg" viewBox="0 0 576 512"><!--! Font Awesome Pro 6.6.0 by @fontawesome - https://fontawesome.com License - https://fontawesome.com/license (Commercial License) Copyright 2024 Fonticons, Inc. --><path d="M128 64l0 320 320 0 0-320L128 64zm352 0l0 320 16 0 16 0 0 32-16 0-16 0-32 0-320 0-32 0-16 0-16 0 0-32 16 0 16 0L96 64l0-32 32 0 320 0 32 0 0 32zM32 320l32 0 0 32-32 0 0 96 512 0 0-96-32 0 0-32 32 0 32 0 0 32 0 96 0 32-32 0L32 480 0 480l0-32 0-96 0-32 32 0zM223.4 136.8l11.3 11.3L288 201.4l53.3-53.3 11.3-11.3 22.6 22.6-11.3 11.3L310.6 224l53.3 53.3 11.3 11.3-22.6 22.6-11.3-11.3L288 246.6l-53.3 53.3-11.3 11.3-22.6-22.6 11.3-11.3L265.4 224l-53.3-53.3-11.3-11.3 22.6-22.6z"/></svg>

<svg xmlns="http://www.w3.org/2000/svg" viewBox="0 0 576 512"><!--! Font Awesome Pro 6.5.2 by @fontawesome - https://fontawesome.com License - https://fontawesome.com/license (Commercial License) Copyright 2024 Fonticons, Inc. --><path d="M128 64V384H448V64H128zm352 0V384h16 16v32H496 480 448 128 96 80 64V384H80 96V64 32h32H448h32V64zM32 320H64v32H32v96H544V352H512V320h32 32v32 96 32H544 32 0V448 352 320H32zM223.4 136.8l11.3 11.3L288 201.4l53.3-53.3 11.3-11.3 22.6 22.6-11.3 11.3L310.6 224l53.3 53.3 11.3 11.3-22.6 22.6-11.3-11.3L288 246.6l-53.3 53.3-11.3 11.3-22.6-22.6 11.3-11.3L265.4 224l-53.3-53.3-11.3-11.3 22.6-22.6z"/></svg>
